img/css3.svg

<svg width="110" height="126" viewBox="0 0 110 126" fill="none" xmlns="http://www.w3.org/2000/svg">
<g clip-path="url(#clip0_1_12)">
<path d="M0 25.091L10.0112 115.913L54.9318 126L99.9777 115.9L110 25.091H0ZM85.8685 75.7628L82.9529 97.7345L82.964 99.6163L55 105.934V105.935L54.9777 105.95L26.7903 99.7026L24.8834 82.2985H38.706L39.6861 91.0964L55.005 94.4034L55 94.4184V94.3863L70.3772 90.8786L72 76.2767H39.8573L39.5819 73.9131L38.9541 68.2455L38.6253 65.2366H73.2233L74.4814 54.1966H21.7854L21.5087 51.5981L20.8809 45.5462L20.5521 42.1529H89.531L89.1998 45.499L85.8685 75.7628ZM86.0174 13.4227L77.1476 5.0182H86.0174V0H66.1663V4.37888L76.5757 12.0437H66.1663V17.0619H86.0174V13.4227ZM62.4442 13.4227L53.9988 5.0182H62.4442V0H43.8337V4.37888L53.428 12.0437H43.8337V17.0619H62.4442V13.4227ZM40.1117 12.0437H30.1861V5.0182H40.1117V0H22.7419V17.0619H40.1117V12.0437Z" fill="#1572B6"/>
</g>
<defs>
<clipPath id="clip0_1_12">
<rect width="110" height="126" fill="white"/>
</clipPath>
</defs>
</svg>

<svg xmlns="http://www.w3.org/2000/svg" width="110" height="126" fill="none"><g clip-path="url(#a)"><path fill="#1572B6" d="m0 25.091 10.011 90.822L54.931 126l45.047-10.1L110 25.091H0Zm85.868 50.672-2.915 21.971.011 1.882L55 105.934v.001l-.022.015-28.188-6.247-1.907-17.404h13.823l.98 8.797 15.319 3.307-.005.015v-.032l15.377-3.507L72 76.277H39.857l-.275-2.364-.628-5.667-.329-3.01h34.598l1.258-11.04H21.785l-.276-2.598-.628-6.052-.329-3.393h68.979l-.331 3.346-3.332 30.264Zm.15-62.34-8.87-8.405h8.87V0H66.165v4.379l10.41 7.665h-10.41v5.018h19.851v-3.64Zm-23.574 0L54 5.018h8.445V0h-18.61v4.379l9.594 7.665h-9.594v5.018h18.61v-3.64Zm-22.332-1.38h-9.926V5.019h9.926V0h-17.37v17.062h17.37v-5.018Z"/></g><defs><clipPath id="a"><path fill="#fff" d="M0 0h110v126H0z"/></clipPath></defs></svg>
